Numix/16/status/indicator-keyboard-Uz-3.svg

<?xml version="1.0" encoding="UTF-8" standalone="no"?>
<svg
   xmlns:dc="http://purl.org/dc/elements/1.1/"
   xmlns:cc="http://creativecommons.org/ns#"
   xmlns:rdf="http://www.w3.org/1999/02/22-rdf-syntax-ns#"
   xmlns:svg="http://www.w3.org/2000/svg"
   xmlns="http://www.w3.org/2000/svg"
   xmlns:sodipodi="http://sodipodi.sourceforge.net/DTD/sodipodi-0.dtd"
   xmlns:inkscape="http://www.inkscape.org/namespaces/inkscape"
   viewBox="0 0 16 16"
   id="svg2"
   version="1.1"
   inkscape:version="0.91 r13725"
   sodipodi:docname="indicator-keyboard-Uz-3.svg">
  <metadata
     id="metadata14">
    <rdf:RDF>
      <cc:Work
         rdf:about="">
        <dc:format>image/svg+xml</dc:format>
        <dc:type
           rdf:resource="http://purl.org/dc/dcmitype/StillImage" />
      </cc:Work>
    </rdf:RDF>
  </metadata>
  <defs
     id="defs12" />
  <sodipodi:namedview
     pagecolor="#ffffff"
     bordercolor="#666666"
     borderopacity="1"
     objecttolerance="10"
     gridtolerance="10"
     guidetolerance="10"
     inkscape:pageopacity="0"
     inkscape:pageshadow="2"
     inkscape:window-width="459"
     inkscape:window-height="369"
     id="namedview10"
     showgrid="false"
     inkscape:zoom="14.75"
     inkscape:cx="8"
     inkscape:cy="8"
     inkscape:window-x="65"
     inkscape:window-y="24"
     inkscape:window-maximized="0"
     inkscape:current-layer="svg2" />
  <path
     style="fill:#ececec;fill-opacity:1"
     d="M 1.5996094 0 C 0.71320937 2.9605947e-16 0 0.71320937 0 1.5996094 L 0 14.400391 C 2.9605947e-16 15.286791 0.71320937 16 1.5996094 16 L 14.400391 16 C 15.286791 16 16 15.286791 16 14.400391 L 16 1.5996094 C 16 0.71320937 15.286791 0 14.400391 0 L 1.5996094 0 z M 1.9101562 4.859375 L 2.5214844 4.859375 L 2.5214844 8.7011719 C 2.5214844 9.0431719 2.5606719 9.34175 2.6386719 9.59375 C 2.7226719 9.83975 2.8364688 10.043078 2.9804688 10.205078 C 3.1244687 10.367078 3.2999063 10.486453 3.5039062 10.564453 C 3.7079063 10.642453 3.9355 10.681641 4.1875 10.681641 C 4.4395 10.681641 4.6670937 10.642453 4.8710938 10.564453 C 5.0750937 10.486453 5.2485781 10.367078 5.3925781 10.205078 C 5.5365781 10.043078 5.6485625 9.83975 5.7265625 9.59375 C 5.8105625 9.34175 5.8515625 9.0431719 5.8515625 8.7011719 L 5.8515625 4.859375 L 6.4648438 4.859375 L 6.4648438 8.7832031 C 6.4648438 9.1252031 6.4218906 9.4460938 6.3378906 9.7460938 C 6.2598906 10.040094 6.1311719 10.297531 5.9511719 10.519531 C 5.7711719 10.741531 5.5342344 10.916969 5.2402344 11.042969 C 4.9522344 11.168969 4.6015 11.230469 4.1875 11.230469 C 3.7735 11.230469 3.419 11.168969 3.125 11.042969 C 2.837 10.916969 2.6038281 10.741531 2.4238281 10.519531 C 2.2438281 10.297531 2.1113437 10.040094 2.0273438 9.7460938 C 1.9493437 9.4460938 1.9101562 9.1252031 1.9101562 8.7832031 L 1.9101562 4.859375 z M 7.6503906 6.4433594 L 10.837891 6.4433594 L 10.837891 6.9199219 C 10.699891 7.0759219 10.518875 7.2923594 10.296875 7.5683594 C 10.074875 7.8443594 9.8379375 8.1521406 9.5859375 8.4941406 C 9.3339375 8.8301406 9.0858437 9.1846406 8.8398438 9.5566406 C 8.5938438 9.9226408 8.3774062 10.271563 8.1914062 10.601562 L 10.917969 10.601562 L 10.917969 11.095703 L 7.515625 11.095703 L 7.515625 10.673828 C 7.671625 10.379828 7.8637969 10.055172 8.0917969 9.7011719 C 8.3257969 9.3471719 8.5665 8.99825 8.8125 8.65625 C 9.0585 8.30825 9.2992031 7.9855469 9.5332031 7.6855469 C 9.7672031 7.3795469 9.9649531 7.1295 10.126953 6.9375 L 7.6503906 6.9375 L 7.6503906 6.4433594 z M 12.720703 8.7539062 C 12.923503 8.7539062 13.097888 8.7793781 13.242188 8.8300781 C 13.390387 8.8807781 13.511875 8.953275 13.609375 9.046875 C 13.706875 9.136575 13.779372 9.2463 13.826172 9.375 C 13.872972 9.4997999 13.896484 9.6350031 13.896484 9.7832031 C 13.896484 10.021103 13.831825 10.217041 13.703125 10.369141 C 13.578325 10.517341 13.41765 10.625106 13.21875 10.691406 C 13.32795 10.718706 13.431803 10.759859 13.533203 10.818359 C 13.638503 10.872959 13.732553 10.945456 13.814453 11.035156 C 13.896353 11.120956 13.962972 11.226762 14.013672 11.351562 C 14.064372 11.476363 14.089844 11.623316 14.089844 11.791016 C 14.089844 11.962616 14.058494 12.119372 13.996094 12.263672 C 13.937594 12.407972 13.847462 12.535331 13.726562 12.644531 C 13.609562 12.749831 13.460644 12.834084 13.277344 12.896484 C 13.094044 12.954984 12.878512 12.984375 12.632812 12.984375 C 12.504112 12.984375 12.384591 12.974578 12.275391 12.955078 C 12.170091 12.939478 12.077994 12.919884 11.996094 12.896484 C 11.914194 12.873084 11.843656 12.849572 11.785156 12.826172 C 11.730556 12.802772 11.689409 12.783178 11.662109 12.767578 L 11.761719 12.427734 C 11.785119 12.443334 11.824306 12.462928 11.878906 12.486328 C 11.933506 12.509728 11.998166 12.533241 12.072266 12.556641 C 12.150266 12.576141 12.234525 12.593775 12.328125 12.609375 C 12.425625 12.624975 12.531431 12.632813 12.644531 12.632812 C 13.015031 12.632812 13.279553 12.556397 13.439453 12.404297 C 13.599353 12.248297 13.679687 12.040597 13.679688 11.779297 C 13.679688 11.607697 13.646378 11.464662 13.580078 11.351562 C 13.517678 11.238462 13.431459 11.148331 13.318359 11.082031 C 13.209159 11.011831 13.079841 10.962847 12.931641 10.935547 C 12.787341 10.904347 12.63255 10.888672 12.46875 10.888672 L 12.410156 10.888672 L 12.410156 10.574219 L 12.544922 10.574219 C 12.650222 10.574219 12.757987 10.564422 12.867188 10.544922 C 12.980287 10.521522 13.082175 10.480375 13.171875 10.421875 C 13.265475 10.363375 13.339937 10.285 13.398438 10.1875 C 13.460838 10.09 13.492188 9.9646001 13.492188 9.8125 C 13.492188 9.6838 13.470634 9.5760281 13.427734 9.4863281 C 13.384834 9.3927281 13.328006 9.3182719 13.253906 9.2636719 C 13.183706 9.2090719 13.099453 9.1698844 13.001953 9.1464844 C 12.908353 9.1191844 12.808425 9.1054687 12.703125 9.1054688 C 12.492525 9.1054688 12.327937 9.1348594 12.210938 9.1933594 C 12.093937 9.2518594 11.999881 9.3067219 11.925781 9.3574219 L 11.761719 9.0585938 C 11.800719 9.0312937 11.849703 8.9999437 11.908203 8.9648438 C 11.970603 8.9297437 12.0431 8.8964344 12.125 8.8652344 C 12.2069 8.8340344 12.295078 8.8085625 12.392578 8.7890625 C 12.493978 8.7656625 12.603703 8.7539062 12.720703 8.7539062 z "
     id="path4" />
</svg>

<svg xmlns="http://www.w3.org/2000/svg" viewBox="0 0 16 16">
 <path d="m 1.6 0 c -0.886 0 -1.6 0.713 -1.6 1.6 l 0 12.801 c 0 0.886 0.713 1.6 1.6 1.6 l 12.801 0 c 0.886 0 1.6 -0.713 1.6 -1.6 l 0 -12.801 c 0 -0.886 -0.713 -1.6 -1.6 -1.6 l -12.801 0 z m 0.311 4.859 l 0.611 0 l 0 3.842 c 0 0.342 0.039 0.641 0.117 0.893 c 0.084 0.246 0.198 0.449 0.342 0.611 c 0.144 0.162 0.319 0.281 0.523 0.359 c 0.204 0.078 0.432 0.117 0.684 0.117 c 0.252 0 0.48 -0.039 0.684 -0.117 c 0.204 -0.078 0.377 -0.197 0.521 -0.359 c 0.144 -0.162 0.256 -0.365 0.334 -0.611 c 0.084 -0.252 0.125 -0.551 0.125 -0.893 l 0 -3.842 l 0.613 0 l 0 3.924 c 0 0.342 -0.043 0.663 -0.127 0.963 c -0.078 0.294 -0.207 0.551 -0.387 0.773 c -0.18 0.222 -0.417 0.397 -0.711 0.523 c -0.288 0.126 -0.639 0.188 -1.053 0.188 c -0.414 0 -0.769 -0.061 -1.063 -0.188 c -0.288 -0.126 -0.521 -0.301 -0.701 -0.523 c -0.18 -0.222 -0.312 -0.479 -0.396 -0.773 c -0.078 -0.3 -0.117 -0.621 -0.117 -0.963 l 0 -3.924 z m 5.74 1.584 l 3.188 0 l 0 0.477 c -0.138 0.156 -0.319 0.372 -0.541 0.648 c -0.222 0.276 -0.459 0.584 -0.711 0.926 c -0.252 0.336 -0.5 0.691 -0.746 1.063 c -0.246 0.366 -0.462 0.715 -0.648 1.045 l 2.727 0 l 0 0.494 l -3.402 0 l 0 -0.422 c 0.156 -0.294 0.348 -0.619 0.576 -0.973 c 0.234 -0.354 0.475 -0.703 0.721 -1.045 c 0.246 -0.348 0.487 -0.671 0.721 -0.971 c 0.234 -0.306 0.432 -0.556 0.594 -0.748 l -2.477 0 l 0 -0.494 z m 5.07 2.311 c 0.203 0 0.377 0.025 0.521 0.076 c 0.148 0.051 0.27 0.123 0.367 0.217 c 0.098 0.09 0.17 0.199 0.217 0.328 c 0.047 0.125 0.07 0.26 0.07 0.408 c 0 0.238 -0.065 0.434 -0.193 0.586 c -0.125 0.148 -0.285 0.256 -0.484 0.322 c 0.109 0.027 0.213 0.068 0.314 0.127 c 0.105 0.055 0.199 0.127 0.281 0.217 c 0.082 0.086 0.149 0.192 0.199 0.316 c 0.051 0.125 0.076 0.272 0.076 0.439 c 0 0.172 -0.031 0.328 -0.094 0.473 c -0.058 0.144 -0.149 0.272 -0.27 0.381 c -0.117 0.105 -0.266 0.19 -0.449 0.252 c -0.183 0.059 -0.399 0.088 -0.645 0.088 c -0.129 0 -0.248 -0.01 -0.357 -0.029 c -0.105 -0.016 -0.197 -0.035 -0.279 -0.059 c -0.082 -0.023 -0.152 -0.047 -0.211 -0.07 c -0.055 -0.023 -0.096 -0.043 -0.123 -0.059 l 0.1 -0.34 c 0.023 0.016 0.063 0.035 0.117 0.059 c 0.055 0.023 0.119 0.047 0.193 0.07 c 0.078 0.019 0.162 0.037 0.256 0.053 c 0.098 0.016 0.203 0.023 0.316 0.023 c 0.37 0 0.635 -0.076 0.795 -0.229 c 0.16 -0.156 0.24 -0.364 0.24 -0.625 c 0 -0.172 -0.033 -0.315 -0.1 -0.428 c -0.062 -0.113 -0.149 -0.203 -0.262 -0.27 c -0.109 -0.07 -0.239 -0.119 -0.387 -0.146 c -0.144 -0.031 -0.299 -0.047 -0.463 -0.047 l -0.059 0 l 0 -0.314 l 0.135 0 c 0.105 0 0.213 -0.01 0.322 -0.029 c 0.113 -0.023 0.215 -0.065 0.305 -0.123 c 0.094 -0.059 0.168 -0.137 0.227 -0.234 c 0.062 -0.098 0.094 -0.223 0.094 -0.375 c 0 -0.129 -0.022 -0.236 -0.064 -0.326 c -0.043 -0.094 -0.1 -0.168 -0.174 -0.223 c -0.07 -0.055 -0.154 -0.094 -0.252 -0.117 c -0.094 -0.027 -0.194 -0.041 -0.299 -0.041 c -0.211 0 -0.375 0.029 -0.492 0.088 c -0.117 0.059 -0.211 0.113 -0.285 0.164 l -0.164 -0.299 c 0.039 -0.027 0.088 -0.059 0.146 -0.094 c 0.062 -0.035 0.135 -0.068 0.217 -0.1 c 0.082 -0.031 0.17 -0.057 0.268 -0.076 c 0.101 -0.023 0.211 -0.035 0.328 -0.035 z" style="fill:#ececec;fill-opacity:1"/>
</svg>
